!!!OTL: Shiergeyue
!!!ARE: Asia, China,ÿGansu, Lingxia
!! I, 133
!!!SCT: C1417
!!!YEM: Copyright 1995, estate of Helmut Schaffrath.
**kern
*ICvox
*Ivox
*M2/4
*k[b-]
*F:
{8dd
8dd
8ff
8cc
=1
2dd}
=2
{8cc
16cc
16dd
8ff
16gg
16ff
=3
8dd
16dd
16ff
16dd
16cc
16a
16r
=4
8cc
16cc
16dd
16a
16g
8f
=5
4g
8g
8r}
=6
{8cc
16cc
16dd
16a
16g
8f
=7
4g
8g
8r}
=8
{8g
16g
16a
8cc
8cc
=9
8dd
8dd
8cc
8dd
=10
8f
8f
16g
16a
8f
=11
4d
8d
8r}
=12
{8cc
16cc
16dd
16a
16g
8f
=13
4g
8g
8r}
=14
{8g
16g
16a
8cc
8cc
=15
8dd
8dd
8cc
8dd
=16
8f
8f
16g
16a
8f
=17
4d
8d
8r}
==
!!!AGN: Xiaodiao
!!!ONB: ESAC (Essen Associative Code) Database: HUANG
!!!AMT: simple duple
!!!AIN: vox
!!!EED: Helmut Schaffrath
!!!EEV: 1.0
*-
!!!OTL: Dongtinghushang da getai
!!!ARE: Asia, China,ÿHunan, Yueyang
!! I, 577
!!!SCT: C1480
!!!YEM: Copyright 1995, estate of Helmut Schaffrath.
**kern
*ICvox
*Ivox
*M2/4
*k[]
*C:
{8ee
8ee
8dd
16cc
16cc
=1
4.gg
8ee
=2
8dd
8ee
8dd
16cc
16cc
=3
4.dd
8ee}
=4
{16a
16cc
16dd
16dd
8cc
16cc
16a
=5
16a
16cc
16dd
16cc
4a
=6
16a
16cc
8ee
16cc
16dd
16cc
16a
=7
8.g
16a
4g}
==
!!!AGN: Wuge, Huagu, Fangyang diao
!!!ONB: ESAC (Essen Associative Code) Database: HUANG
!!!AMT: simple duple
!!!AIN: vox
!!!EED: Helmut Schaffrath
!!!EEV: 1.0
*-
